X:27
T:Fairy Queen (hornpipe), The 
F:file ID fs.3/027fairy_q
Z:bill@capeirish.com
B:FS3.30a
M:C
L:1/8
Q:150
R:hornpipe
K:D
(3ABc|d2dc d2AG|FDFA dAFA|GABG E2ef|gece dcBA|
d2dc d2AG|FDFA dAFA|GABG E2ef|gece d2 :|
zA|dff2 gece|da^ga baga|fdAF G2ef|gee2 gece|
dff2 gece|da^ga baga|fdAF G2ef|gecA d2 :|

